src/lib/packages/icons/src/assets/filled/youtube.svg

<svg xmlns="http://www.w3.org/2000/svg" width="24" height="24" fill="none"><path fill="currentColor" d="M21.58 7.19c-.23-.86-.91-1.54-1.77-1.77C18.25 5 12 5 12 5s-6.25 0-7.81.42c-.86.23-1.54.91-1.77 1.77C2 8.75 2 12.01 2 12.01s0 3.26.42 4.82c.23.86.91 1.51 1.77 1.74 1.56.42 7.81.42 7.81.42s6.25 0 7.81-.42c.86-.23 1.54-.88 1.77-1.74.42-1.56.42-4.82.42-4.82s0-3.26-.42-4.82ZM10 15V9l5 3-5 3Z"/></svg>

<svg width="24" height="24" viewBox="0 0 24 24" fill="none" xmlns="http://www.w3.org/2000/svg">
<path d="M21.58 7.19C21.35 6.33 20.67 5.65 19.81 5.42C18.25 5 12 5 12 5C12 5 5.75 5 4.19 5.42C3.33 5.65 2.65001 6.33 2.42001 7.19C2.00001 8.75 2 12.01 2 12.01C2 12.01 2.00001 15.27 2.42001 16.83C2.65001 17.69 3.33 18.34 4.19 18.57C5.75 18.99 12 18.99 12 18.99C12 18.99 18.25 18.99 19.81 18.57C20.67 18.34 21.35 17.69 21.58 16.83C22 15.27 22 12.01 22 12.01C22 12.01 22 8.75 21.58 7.19ZM10 15V9L15 12L10 15Z" fill="currentColor"/>
</svg>
